%
(Header)
(Generated by gcodetools from Inkscape.)
(Using default header. To add your own header create file "header" in the output dir.)
M3
(Header end.)
G21 (All units in mm)

(Start cutting path id: path30404)
(Change tool to Default tool)

G00 Z5.000000
G00 X23.892326 Y9.425744

G01 Z-0.125000 F100.0(Penetrate)
G03 X50.805352 Y26.368208 Z-0.125000 I-69.200947 J139.772223 F400.000000
G03 X61.775449 Y38.578977 Z-0.125000 I-29.067880 J37.147572
G03 X64.716946 Y45.796192 Z-0.125000 I-19.548450 J12.175337
G03 X64.443233 Y51.113833 Z-0.125000 I-9.803420 J2.161257
G03 X61.521090 Y55.421527 Z-0.125000 I-9.059685 J-3.000707
G03 X54.033414 Y59.599629 Z-0.125000 I-14.631109 J-17.422285
G03 X46.228214 Y61.259369 Z-0.125000 I-11.425937 J-34.549858
G03 X45.010615 Y60.731068 Z-0.125000 I-0.135492 J-1.355003
G03 X44.828219 Y59.181715 Z-0.125000 I1.215337 J-0.928487
G03 X46.635983 Y55.556312 Z-0.125000 I41.574197 J18.467064
G02 X48.602631 Y51.836381 Z-0.125000 I-88.544946 J-49.191646
G02 X49.432994 Y48.589631 Z-0.125000 I-7.012668 J-3.523063
G02 X48.512976 Y46.407260 Z-0.125000 I-2.813299 J-0.099114
G02 X43.925124 Y44.345298 Z-0.125000 I-5.454982 J6.002348
G02 X30.252574 Y44.133304 Z-0.125000 I-7.990063 J74.307568
G02 X22.490949 Y46.504796 Z-0.125000 I1.411156 J18.505758
G02 X19.960132 Y51.010682 Z-0.125000 I2.475390 J4.354035
G02 X24.076114 Y61.069926 Z-0.125000 I15.499084 J-0.470125
G02 X42.538330 Y70.204689 Z-0.125000 I21.188254 J-19.599135
G02 X64.876856 Y68.237624 Z-0.125000 I5.837596 J-61.531397
G01 X65.244429 Y67.870050 Z-0.125000
G00 Z5.000000

(End cutting path id: path30404)



(Using default footer. To add your own footer create file "footer" in the output dir.)
(end)
%