%
(Header)
(Generated by gcodetools from Inkscape.)
(Using default header. To add your own header create file "header" in the output dir.)
M3
(Header end.)
G21 (All units in mm)

(Start cutting path id: path28541)
(Change tool to Default tool)

G00 Z5.000000
G00 X79.412998 Y39.474941

G01 Z-0.125000 F100.0(Penetrate)
G02 X76.424850 Y24.452507 Z-0.125000 I-39.255512 J0.000000 F400.000000
G02 X67.915325 Y11.717102 Z-0.125000 I-36.267364 J15.022434
G02 X55.179920 Y3.207577 Z-0.125000 I-27.757839 J27.757839
G02 X40.157486 Y0.219429 Z-0.125000 I-15.022434 J36.267364
G02 X25.135052 Y3.207577 Z-0.125000 I-0.000000 J39.255512
G02 X12.399647 Y11.717102 Z-0.125000 I15.022434 J36.267364
G02 X3.890122 Y24.452507 Z-0.125000 I27.757839 J27.757839
G02 X0.901974 Y39.474941 Z-0.125000 I36.267364 J15.022434
G02 X3.890122 Y54.497376 Z-0.125000 I39.255514 J-0.000000
G02 X12.399647 Y67.232780 Z-0.125000 I36.267363 J-15.022434
G02 X25.135052 Y75.742306 Z-0.125000 I27.757839 J-27.757839
G02 X40.157486 Y78.730454 Z-0.125000 I15.022434 J-36.267364
G02 X67.915325 Y67.232780 Z-0.125000 I-0.000000 J-39.255512
G02 X79.412998 Y39.474941 Z-0.125000 I-27.757839 J-27.757839
G01 X79.412998 Y39.474941 Z-0.125000
G00 Z5.000000

(End cutting path id: path28541)


(Footer)
M5
G00 X0.0000 Y0.0000
M2
(Using default footer. To add your own footer create file "footer" in the output dir.)
(end)
%